X: 14809
T: Gar An Dá Chéad Bliain
R: reel
M: 4/4
K: Dmajor
|:"D" A,B,DE DEFD|DEFA AB A2|"Bm" fedc cBAF|"G" DEFD GFED|
"D" A,B,DE DGFD|DEFA AB A2|"G" fedg cdAB|1 "A" AEFD GFED:|2 "A" AEFD GABc||
|:"Bm" dDDD AFEA|dDDD dcBA|"G" dAFG ABAF|"A" DEFD GABc|
[1"Bm" dDDD AFEA|"E" dEEE BAFE|"G" DEFG ABAF|"A" DEFD GABc:|
[2"Bm" dDDD AFEA|dDDD d3 c|"G" BcdA ABAF|"A" DEFD EGFD||

